X:1
T:French Suite I Gigue
T:BWV 812
T:J. S. Bach
%%score { ( 1 3 ) | ( 2 4 ) }
L:1/8
M:2/2
K:F
V:1 treble nm="Harp"
V:3 treble 
V:2 bass 
V:4 bass 
V:1
 z z/ A/ d>A B-B/4A/4G/4F/4 E>G | z z/ d/ a>e f-f/4e/4d/4c/4 =B>d | ^c3/2 d/4e/4 f>g e4- | %3
 e>A d>A B-B/4A/4G/4F/4 E>G | F3/2E/4D/4 B2- B3/2A/4G/4 A>B | G>G c2- c3/2B/4A/4 [BB]>c | %6
 A>A d2- d3/2c/4=B/4 [cc]>d | e4- e>A d>d | d-d/4c/4=B/4c/4 c>B B4- | B>e a>e f-f/4e/4d/4c/4 =B>d | %10
 ^G3/2^F/4E/4 c>c c-c/4d/4c/4=B/4 B>A | A8 | z z/ A/ d>A B-B/4A/4G/4F/4 E>G | %13
 z z/ d/ a>e f-f/4e/4d/4c/4 =B>d | ^c3/2 d/4e/4 f>g e4- | e>A d>A B-B/4A/4G/4F/4 E>G | %16
 F3/2E/4D/4 B2- B3/2A/4G/4 A>B | G>G c2- c3/2B/4A/4 [BB]>c | A>A d2- d3/2c/4=B/4 [cc]>d | %19
 e4- e>A d>d | d-d/4c/4=B/4c/4 c>B B4- | B>e a>e f-f/4e/4d/4c/4 =B>d | %22
 ^G3/2^F/4E/4 c>c c-c/4d/4c/4=B/4 B>A | A8 | z z/ E/ A,>D ^C-C/4D/4E/4F/4 G>E | %25
 F2- FF/4E/4F/4G/4 A2- A-A/4^F/4G/4A/4 | z z/ d/ G>d ^c-c/4d/4e/4f/4 g>e | f4 e4- | %28
 e>e A>e f3 z/ e/ | d>d G>d e3 z/ d/ | c-c/4c/4d/4e/4 f-f/4e/4f/4d/4 =b4- | %31
 b3/2a/4^g/4 a2- a3/2=g/4f/4 g2- | g>a f2- f-f/4f/4e/4f/4 g/4f/4e/f/4e/4d/ | ^c4 z z/ A/ d>A | %34
 B-B/4A/4G/4F/4 E>G F>d G>d | ^c-c/4d/4e/4f/4 g>e ^f-f/4g/4a/4b/4 c'>a | b2 b>a g2 f2- | %37
 f/e/d/^c/ d/e/f/g/4a/4 b-b/4a/4g/4f/4 e/f/g/e/ | ^c3/2=B/4A/4 f>f f-f/4g/4f/4e/4 e>d | d8 | %40
 z z/ E/ A,>D ^C-C/4D/4E/4F/4 G>E | F2- FF/4E/4F/4G/4 A2- A-A/4^F/4G/4A/4 | %42
 z z/ d/ G>d ^c-c/4d/4e/4f/4 g>e | f4 e4- | e>e A>e f3 z/ e/ | d>d G>d e3 z/ d/ | %46
 c-c/4c/4d/4e/4 f-f/4e/4f/4d/4 =b4- | b3/2a/4^g/4 a2- a3/2=g/4f/4 g2- | %48
 g>a f2- f-f/4f/4e/4f/4 g/4f/4e/f/4e/4d/ | ^c4 z z/ A/ d>A | B-B/4A/4G/4F/4 E>G F>d G>d | %51
 ^c-c/4d/4e/4f/4 g>e ^f-f/4g/4a/4b/4 c'>a | b2 b>a g2 f2- | %53
 f/e/d/^c/ d/e/f/g/4a/4 b-b/4a/4g/4f/4 e/f/g/e/ | ^c3/2=B/4A/4 f>f f-f/4g/4f/4e/4 e>d | %55
 !fermata!d8 |] %56
V:2
 z8 | z8 | z z/ A,<DA,/ B,-B,/4A,/4G,/4F,/4 F,/4 E,3/2G,/4 | F,2 z z/ ^F,/ G,>E, A,>A,, | %4
 D,>C, B,,3/2A,,/4G,,/4 C,2 z2 | z z/ C,/4B,,/4 A,,3/2B,,/4C,/4 D,,2 z2 | %6
 z z/ D,/4E,/4 F,3/2E,/4D,/4 E,2 z2 | z z/ =B,/ E>B, C-C/4B,/4A,/4G,/4 ^F,>A, | %8
 ^G,2 A,2- A,2 G,3/2A,/4=B,/4 | E,2- E,>C, D,4- | D,/D,/C,/=B,,/ A,,/G,,/F,,/E,,/ D,,>D, E,>E,, | %11
 z z/ ^C,/ D,>F, E,4 | z8 | z8 | z z/ A,<DA,/ B,-B,/4A,/4G,/4F,/4 F,/4 E,3/2G,/4 | %15
 F,2 z z/ ^F,/ G,>E, A,>A,, | D,>C, B,,3/2A,,/4G,,/4 C,2 z2 | %17
 z z/ C,/4B,,/4 A,,3/2B,,/4C,/4 D,,2 z2 | z z/ D,/4E,/4 F,3/2E,/4D,/4 E,2 z2 | %19
 z z/ =B,/ E>B, C-C/4B,/4A,/4G,/4 ^F,>A, | ^G,2 A,2- A,2 G,3/2A,/4=B,/4 | E,2- E,>C, D,4- | %22
 D,/D,/C,/=B,,/ A,,/G,,/F,,/E,,/ D,,>D, E,>E,, | z z/ ^C,/ D,>F, E,4 | z8 | %25
 z z/ A,/ D,>G, ^F,-F,/4G,/4A,/4B,/4 C>A, | B,2- B,-B,/4B,/4A,/4G,/4 A,4 | %27
 D,3/2D/4C/4 =B,3/2C/4D/4 D,-D,/4F,/4E,/4D,/4 A,/4^G,/4A,/4G,/4A,/4G,/4^F,/4E,/4 | %28
 A,3/2A,,/4=B,,/4 C,3/2B,,/4A,,/4 D,2 z2 | %29
 z z/ G,,/4A,,/4 =B,,3/2A,,/4G,,/4 C,2 C,-C,/4C,/4D,/4E,/4 | %30
 F,>A, D,>A, ^G,-G,/4A,/4=B,/4C/4 D>B, | C>=B, C>D E>F E>D | %32
 ^C-C/4A,/4=B,/4C/4 D-D/4D,/4E,/4F,/4 C,/4B,,/4C,/4B,,/4C,/4B,,/4C,/4B,,/4 C,/4B,,/4C,/4B,,/4C,/4B,,/4C,/4B,,/4 | %33
 A,,2 z2 z4 | z z/ E,/ A,>E, F,-F,/4E,/4D,/4C,/4 B,,>D, | %35
 G,,-G,,/4F,/4E,/4D,/4 D,/4^C,/4D,/4C,/4D,/4C,/4=B,,/4C,/4 D,-D,/4B,/4A,/4G,/4 ^F,3/2E,/4F,/4 | %36
 G,-G,/4A,/4G,/4F,/4 E,-E,/4F,/4E,/4D,/4 ^C,>A,, D,>D,, | G,, z z2 G, z z2 | %38
 z/ G,/F,/E,/ D,/C,/B,,/A,,/ G,,>G, A,>A,, | z z/ ^F,/ G,>B, A,4 | z8 | %41
 z z/ A,/ D,>G, ^F,-F,/4G,/4A,/4B,/4 C>A, | B,2- B,-B,/4B,/4A,/4G,/4 A,4 | %43
 D,3/2D/4C/4 =B,3/2C/4D/4 D,-D,/4F,/4E,/4D,/4 A,/4^G,/4A,/4G,/4A,/4G,/4^F,/4E,/4 | %44
 A,3/2A,,/4=B,,/4 C,3/2B,,/4A,,/4 D,2 z2 | %45
 z z/ G,,/4A,,/4 =B,,3/2A,,/4G,,/4 C,2 C,-C,/4C,/4D,/4E,/4 | %46
 F,>A, D,>A, ^G,-G,/4A,/4=B,/4C/4 D>B, | C>=B, C>D E>F E>D | %48
 ^C-C/4A,/4=B,/4C/4 D-D/4D,/4E,/4F,/4 C,/4B,,/4C,/4B,,/4C,/4B,,/4C,/4B,,/4 C,/4B,,/4C,/4B,,/4C,/4B,,/4C,/4B,,/4 | %49
 A,,2 z2 z4 | z z/ E,/ A,>E, F,-F,/4E,/4D,/4C,/4 B,,>D, | %51
 G,,-G,,/4F,/4E,/4D,/4 D,/4^C,/4D,/4C,/4D,/4C,/4=B,,/4C,/4 D,-D,/4B,/4A,/4G,/4 ^F,3/2E,/4F,/4 | %52
 G,-G,/4A,/4G,/4F,/4 E,-E,/4F,/4E,/4D,/4 ^C,>A,, D,>D,, | G,, z z2 G, z z2 | %54
 z/ G,/F,/E,/ D,/C,/B,,/A,,/ G,,>G, A,>A,, | z z/ ^F,/ G,>B, !fermata!A,4 |] %56
V:3
 x8 | F3/2E/4D/4 D/4^C/4D/4C/4D/4C/4D/4C/4 A2 G2- | %2
 G>^C[I:staff +1] D>[I:staff -1]^c d2 c3/2d/4e/4 | A2 z z/ D/ D2 ^C2 | D>D G>D E2 F2- | %5
 F>E A>E ^F2 G2- | G>^F =B>A ^G2 A2- | A>A ^G3/2A/4=B/4 E z z2 | %8
 z z/ E/ A>E F-F/4E/4D/4C/4[I:staff +1] =B,>[I:staff -1]D | %9
[I:staff +1] C>=B, C2- C>B, D>[I:staff -1]F | E2 A2- A2 ^G2 | %11
 z z/4 G/4F/4E/4 F>D- D-D/4D/4^C/4=B,/4 C2 | x8 | F3/2E/4D/4 D/4^C/4D/4C/4D/4C/4D/4C/4 A2 G2- | %14
 G>^C[I:staff +1] D>[I:staff -1]^c d2 c3/2d/4e/4 | A2 z z/ D/ D2 ^C2 | D>D G>D E2 F2- | %17
 F>E A>E ^F2 G2- | G>^F =B>A ^G2 A2- | A>A ^G3/2A/4=B/4 E z z2 | %20
 z z/ E/ A>E F-F/4E/4D/4C/4[I:staff +1] =B,>[I:staff -1]D | %21
[I:staff +1] C>=B, C2- C>B, D>[I:staff -1]F | E2 A2- A2 ^G2 | %23
 z z/4 G/4F/4E/4 F>D- D-D/4D/4^C/4=B,/4 C2 | x8 | x8 | D2 E2- EE/4F/4E/4D/4 ^C3/2=B,/4C/4 | %27
 D>A D>A G-G/4A/4=B/4c/4 d>B | c4- c3/2d/4e/4 c>c | =B4- B3/2c/4d/4 c>B | %30
 A2 z2 z z/ a/ ^g3/2a/4=b/4 | e2- e-e/4d/4e/4f/4 =B2- B-B/4B/4^c/4d/4 | e2- e-e/4d/4^c/4d/4 G4- | %33
 G>E A>E F-F/4E/4D/4C/4 =B,>D | ^C4 D4 | E2 z2 z4 | z z/ d/ g>d e-e/4d/4^c/4=B/4 A>=c | %37
 B>G D>F E-E/4F/4G/4A/4 B>G | A2 d2- d2 ^c2 | z z/4 c/4B/4A/4 B>G- G-G/4G/4^F/4E/4 F2 | x8 | x8 | %42
 D2 E2- EE/4F/4E/4D/4 ^C3/2=B,/4C/4 | D>A D>A G-G/4A/4=B/4c/4 d>B | c4- c3/2d/4e/4 c>c | %45
 =B4- B3/2c/4d/4 c>B | A2 z2 z z/ a/ ^g3/2a/4=b/4 | e2- e-e/4d/4e/4f/4 =B2- B-B/4B/4^c/4d/4 | %48
 e2- e-e/4d/4^c/4d/4 G4- | G>E A>E F-F/4E/4D/4C/4 =B,>D | ^C4 D4 | E2 z2 z4 | %52
 z z/ d/ g>d e-e/4d/4^c/4=B/4 A>=c | B>G D>F E-E/4F/4G/4A/4 B>G | A2 d2- d2 ^c2 | %55
 z z/4 c/4B/4A/4 B>G- G-G/4G/4^F/4E/4 !fermata!F2 |] %56
V:4
 x8 | x8 | x8 | x8 | x8 | x8 | x8 | x8 | x8 | x8 | x8 | x8 | x8 | x8 | x8 | x8 | x8 | x8 | x8 | %19
 x8 | x8 | x8 | x8 | x8 | x8 | x8 | x8 | x8 | x8 | x8 | x8 | x8 | x8 | x8 | x8 | x8 | x8 | x8 | %38
 x8 | D,8 | x8 | x8 | x8 | x8 | x8 | x8 | x8 | x8 | x8 | x8 | x8 | x8 | x8 | x8 | x8 | %55
 !fermata!D,8 |] %56

